svg/icons/src/icon-referral.svg

<?xml version="1.0" encoding="UTF-8"?>
<svg width="32px" height="32px" viewBox="0 0 32 32" version="1.1" xmlns="http://www.w3.org/2000/svg" xmlns:xlink="http://www.w3.org/1999/xlink">
    <!-- Generator: Sketch 52.5 (67469) - http://www.bohemiancoding.com/sketch -->
    <title>icon-referral</title>
    <desc>Created with Sketch.</desc>
    <defs>
        <path d="M29.707,18.293 C29.902,18.488 30,18.744 30,19 C30,19.256 29.902,19.512 29.707,19.707 L23.707,25.707 C23.316,26.098 22.684,26.098 22.293,25.707 C21.902,25.317 21.902,24.683 22.293,24.293 L26.586,20 L17,20 C16.448,20 16,19.552 16,19 C16,18.448 16.448,18 17,18 L26.586,18 L22.293,13.707 C21.902,13.316 21.902,12.684 22.293,12.293 C22.684,11.902 23.316,11.902 23.707,12.293 L29.707,18.293 Z M8,18 L12,18 C13.1045695,18 14,18.8954305 14,20 L14,22 L6,22 L6,20 C6,18.8954305 6.8954305,18 8,18 Z M10,16 C8.34314575,16 7,14.6568542 7,13 C7,11.3431458 8.34314575,10 10,10 C11.6568542,10 13,11.3431458 13,13 C13,14.6568542 11.6568542,16 10,16 Z M19,24 C19.5522847,24 20,24.4477153 20,25 C20,25.5522847 19.5522847,26 19,26 L6,26 C3.790861,26 2,24.209139 2,22 L2,10 C2,7.790861 3.790861,6 6,6 L26,6 C28.209139,6 30,7.790861 30,10 L30,14 C30,14.5522847 29.5522847,15 29,15 C28.4477153,15 28,14.5522847 28,14 L28,10 C28,8.8954305 27.1045695,8 26,8 L6,8 C4.8954305,8 4,8.8954305 4,10 L4,22 C4,23.1045695 4.8954305,24 6,24 L19,24 Z" id="path-1"></path>
    </defs>
    <g id="icon-referral" stroke="none" stroke-width="1" fill="none" fill-rule="evenodd">
        <mask id="mask-2" fill="white">
            <use xlink:href="#path-1"></use>
        </mask>
        <use id="Combined-Shape" fill="#2333FF" xlink:href="#path-1"></use>
    </g>
</svg>

<svg height="32" width="32" xmlns="http://www.w3.org/2000/svg"><path d="M29.707 18.293a.997.997 0 0 1 0 1.414l-6 6a.999.999 0 1 1-1.414-1.414L26.586 20H17a1 1 0 0 1 0-2h9.586l-4.293-4.293a.999.999 0 1 1 1.414-1.414zM8 18h4a2 2 0 0 1 2 2v2H6v-2a2 2 0 0 1 2-2zm2-2a3 3 0 1 1 0-6 3 3 0 0 1 0 6zm9 8a1 1 0 0 1 0 2H6a4 4 0 0 1-4-4V10a4 4 0 0 1 4-4h20a4 4 0 0 1 4 4v4a1 1 0 0 1-2 0v-4a2 2 0 0 0-2-2H6a2 2 0 0 0-2 2v12a2 2 0 0 0 2 2z" fill="#2333ff" fill-rule="evenodd"/></svg>
